X:1
T:The Story of His Love
T:The Story of His Love
T:Charles Clinton Case
T:Mary O. Page, 1885
T:Public Domain Courtesy of the Cyber Hymnal™
C:Charles Clinton Case
Z:Public Domain
Z:Courtesy of the Cyber Hymnal™
%%score ( 1 2 ) ( 3 4 )
L:1/8
Q:1/4=100
M:4/4
K:Bb
V:1 treble 
V:2 treble 
V:3 bass 
V:4 bass 
V:1
 [DF]2 | [DF]3 [DF] [^C=E][DF] [DB]>[_E^c] | ([Fd]4 [DB]2) [DB]2 | [CA]3 [DB] [Ec]2 [EF]2 | %4
w: 1.~Come|tell the sto- ry of His|love, * My|soul de- lights to|
w: 2.~It|tells of grace ex- ceed- ing|great, * That|sets my spir- it|
w: 3.~Its|ho- ly in- fluence I would|know, * Its|full re- deem- ing|
w: 4.~Come,|blest Re- deem- er, seal me|Thine, * Be-|neath Thy watch- ful|
 [Dd]6 [DF]2 | [DF]3 [DF] [^C=E][DF] [DB]>[E^c] | ([Fd]4 [DB]2) [FB]2 | [Ec]2 [Ge]2 [Fd]2 [Ec]2 | %8
w: hear; It|falls like mu- sic from a-|bove, * Up-|on my list- ening|
w: free; It|o- pens wide to Hea- ven’s|gate, * And|gives me li- ber-|
w: power, I’d|leave these trif- ling things be-|low, * And|claim a heav- enly|
w: care; My|earth- ly hopes I would re-|sign, * And|heav- enly glo- ry|
 [DB]6 z2 ||"^Refrain" [GB]6 [FA]>[EG] | [DF]4 [DB]2 [FB]2 | [Ec]2 [Fd]2 [Ge]2 A2 | (B4 F2) [DB]2 | %13
w: ear.|||||
w: ty.|Come, tell the|sto- ry, The|sto- ry of His|love; * It|
w: dower.|||||
w: share.|||||
 [GB]6 ([FA][EG]) | [DF]4 [DB]2 [FB]2 | [Ec]2 [Fd]2 [Ge]2 A2 | [DB]6 |] %17
w: ||||
w: falls like *|mu- sic, Like|mu- sic from a-|bove.|
w: ||||
w: ||||
V:2
 x2 | x8 | x8 | x8 | x8 | x8 | x8 | x8 | x8 || x8 | x8 | x6 (FE) | D6 x2 | x8 | x8 | x6 (FE) | %16
 x6 |] %17
V:3
 [B,,B,]2 | [B,,B,]3 [B,,B,] [B,,B,][B,,B,] [B,,B,]>[B,,B,] | [B,,B,]6 [B,,B,]2 | %3
w: ~|~ ~ ~ ~ ~ ~|~ ~|
 [F,C]3 [F,B,] [F,A,]2 [F,A,]2 | [B,,B,]6 [B,,B,]2 | %5
w: ~ ~ ~ ~|~ ~|
 [B,,B,]3 [B,,B,] [B,,B,][B,,B,] [B,,B,]>[B,,B,] | [B,,B,]6 [D,B,]2 | %7
w: ~ ~ ~ ~ ~ ~|~ ~|
 [E,G,]2 [C,G,]2 [F,A,]2 [F,A,]2 | [B,,B,]6 z2 || z2 [E,B,]2 [E,B,]2 z2 | %10
w: ~ ~ ~ ~|~|yes, come,|
 z2 [B,,B,]>[B,,B,] [B,,B,][B,,B,] D,2 | [E,G,]2 [D,G,]2 [C,G,]2 F,2 | %12
w: tell the sto- ry, ~|~ ~ ~ ~|
 [B,,F,]2 [B,,F,]2 [B,,F,]2 z2 | z2 [E,B,]2 [E,B,]2 z2 | z2 [B,,B,]2 [B,,B,][B,,B,] [D,B,]2 | %15
w: ~ His love,|It falls|like mu- sic *|
 [E,G,]2 [D,G,]2 [C,G,]2 F,2 | [B,,F,]6 |] %17
w: ||
V:4
 x2 | x8 | x8 | x8 | x8 | x8 | x8 | x8 | x8 || x8 | x6 D,2 | x6 F,2 | x8 | x8 | x8 | x6 F,2 | x6 |] %17

